!!!Genre:	Skotshne
!!!Mode:	Altered Dorian
!!!Listening/dance:	listening
!!!:	*G:frey; *C:; *G:frey
!!!One_Mode:	no
**kern
*I"P1
*clefG2
*k[b-]
*G:frey
=15!|:
*>B
*k[b-e-a-]
(16gLL
16a-)
(16g
16a-JJ)
16bnLL
16cc
16b
16a-JJ
=16
2g
=17
(16bnLL
16cc)
(16bn
16ccJJ)
16ddLL
16ee-
16dd
16ccJJ
=18
2dd
=19
16ddLL
16ee-
16ff#X
16ee-JJ
8ddL
(8qdd/
16ccL)
16bnJJ
=20
16bnLL
16cc
16dd
16ccJJ
8bnL
24a-L
24g
24fJJ
=21
(16fLL
16a-)
(16a-
16fJJ)
16fLL
16cc
16bn
16a-JJ
=22
(16a-LL
16gJ)
8gJ
4r
=:|!
(16a-LL
16gJ)
8gJ
16r
=23||
*>C
16gLL
16cc
16ddJJ
*>eM
*>bM
*G:frey
=32||
*>D
*k[b-e-a-]
16ddLL
16bnJJ
4cc
(8qcc/
16bnLL)
16a-JJ
=33
8gL
8gJ
8ggL
8ggJ
=34
16ggLL
16ddJJ
4ee-
(8qee-/
16ddLL)
16ccJJ
=35
8ddL
8dd
8dd
8ddJ
=36
16bb-XLL
16ggJ
[8aa-J
16aa-LL]
16ffJ
[8ggJ
=37
16ggLL]
16ee-J
[8ffJ
16ffLL]
16ddJ
[8ee-J
=38
16ee-LL]
16cc
16dd
16ee-JJ
16ddLL
16cc
16bn
16a-JJ
=39
(16a-LL
16gJ)
8gJ
4r
*>eM
==
*-
